X:1
T:I Tell Him All
T:I Tell Him All
T:Andrew Carswell Fergus Ferguson
T:Andrew Carswell Fergus Ferguson, 1894
T:Public Domain Courtesy of the Cyber Hymnal™
T:Public Domain Courtesy of the Cyber Hymnal™
C:Andrew Carswell Fergus Ferguson
Z:Public Domain
Z:Courtesy of the Cyber Hymnal™
%%score ( 1 2 ) ( 3 4 )
L:1/8
Q:1/4=93
M:3/4
K:Ab
V:1 treble 
V:2 treble 
V:3 bass 
V:4 bass 
V:1
 [CE]2 | [Ec][CA] [CE]3 [CE] | [DF][DF] [FB]3 [FA] | [DG][DG] [DG]3 [DF] | [DF][CE] [Ec]3 [_Ge] | %5
w: 1.~I|tell Him all; it|is so sweet To|lay my bur- den|at His feet, My|
w: 2.~A-|mid earth’s storms and|gloom and strife, When|se- cret tri- als|pierce the life Like|
w: 3.~How|blest to know He’ll|guide and keep, As|shep- herds guard the|help- less sheep, In|
 [Fd]3 [FB] [EA][DG] | [CA]4 z [CE] | [DG][CA] [DB]3 [DE] | [Ec][DB] [CA]3 E | %9
w: trust He’ll not be-|tray; I|know He hears my|prayer in song, My|
w: thorns with- in the|soul, Je-|sus then sees my|ev- ery loss— He|
w: tones both soft and|loud; And|tho’ Christ some- times|seems to wait, He|
 [EB][Ec] [Ed]3 [EB] | [Ee][Ed] [Ec]3 [_Ge] | [Fd]3 [FB] [EA][DG] | [CA]4 ||"^Refrain" [CE]2 | %14
w: whis- per ’mid the|bu- sy throng, A|“Be- thel” ’long the|way.||
w: knows He faint- ed|’neath the cross, And|cheers tho’ tem- pests|roll.|I|
w: ne- ver yet gave|help too late To|gold- en line each|cloud.||
 [DF][Fd] [Fd]3 [DF] | [CE][Ec] [Ec]3 [Ec] | [EB]3 [EB] [EA][EB] | (c2 e2) E2 | %18
w: ||||
w: tell him all— sin,|grief, de- sire, He’ll|not my trust be-|tray; * He’ll|
w: ||||
 [DF][Fd] [Fd]3 [DF] | [CE][Ec] [Ec]3 [_Ge] | [Fd]3 [FB] [EA]>[DG] | [CA]4 |] %22
w: ||||
w: stay by me thro’|tri- al’s fire, And|keep me all the|way.|
w: ||||
V:2
 x2 | x6 | x6 | x6 | x6 | x6 | x6 | x6 | x5 E | x6 | x6 | x6 | x4 || x2 | x6 | x6 | x6 | E4 E2 | %18
 x6 | x6 | x6 | x4 |] %22
V:3
 [A,,A,]2 | [A,,A,][A,,E,] [A,,A,]3 [A,,A,] | [D,A,][D,A,] [B,,D]3 [B,,B,] | %3
 [E,B,][E,B,] [E,B,]3 [E,G,] | [A,,A,][A,,A,] [A,,A,]3 [C,A,] | [D,A,]3 [D,D] [E,C][E,B,] | %6
 [A,,A,]4 z [A,,A,] | [E,B,][E,A,] [E,G,]3 [E,G,] | [A,,A,][A,,A,] [A,,E,]3 [C,A,] | %9
 [E,G,][E,A,] [E,B,]3 [D,G,] | [C,A,][B,,G,] [A,,A,]3 [C,A,] | [D,A,]3 [D,D] [E,C][E,B,] | %12
 [A,,A,]4 || [A,,A,]2 | [D,A,][D,A,] [D,A,]3 [D,A,] | [A,,A,][A,,A,] [A,,A,]3 [A,,A,] | %16
 [E,G,]3 [D,G,] [C,A,][E,G,] | A,2 C2 [C,A,]2 | [D,A,][D,A,] [D,A,]3 [D,A,] | %19
 [A,,A,][A,,A,] [A,,A,]3 [C,A,] | [D,A,]3 [D,D] [E,C]>[E,B,] | [A,,A,]4 |] %22
V:4
 x2 | x6 | x6 | x6 | x6 | x6 | x6 | x6 | x6 | x6 | x6 | x6 | x4 || x2 | x6 | x6 | x6 | A,4 x2 | %18
 x6 | x6 | x6 | x4 |] %22

